X:1
T:Wild Irish -- Reel
R:reel
C:G. L. TRACY.
B:Ryan's Mammoth Collection
N: 266
Z: Contributed by Ray Davies,  ray:davies99.freeserve.co.uk
M:2/4
L:1/16
K:Bb
u((3fga)|\
kb2(fe) dBAB | cdef dBAB | kb2(fe) dBAB | cBAc .B2((3fga) |
kb2(fe) dBAB | cdef dBAB | cg^fg agfg | fecA B2 :|
|:vdc|\
BG^FG DG^FG | =FGAB cAdc | BG^FG DG^FG | =FGAB .c2(d^f) |
g^fga bagf | gag=f dcBc | dg^fg bgfg | =fedc B2 :|
